X: 14663
T: Gan Ainm
R: jig
M: 6/8
K: Dmixolydian
A|BcB BAG|Addd2e|fef ded|cAG FGA|
BcB BAG|Addd2e|fed cAF|1 G3G2A:|2 G3G2d||
|:dgg gag|fddd2e|fef ded|cAG FGA|
BcB BAG|Addd2e|fed cAF|1 G3G2d:|2 G3G2||

